!!!COM: Music21
!!!OTL: march_Earl-Of-Mansfields--The
!!!OMV: march_Earl-Of-Mansfields--The
**kern
*clefG2
*k[f#c#]
*D:
*M4/4
=1
16ff#KL
8.eeJ
=
[4dd
8.ddL]
16eeJk
4dd
4a
=
8.ddL
16eeJk
8.ff#L
16ggJk
4aa
16ggKL
8.ff#J
=
[4ee
8.eeL]
16ff#Jk
4ee
4a
=
8.cc#L
16ddJk
8.eeL
16ff#Jk
4gg
16ff#KL
8.eeJ
=
[4dd
8.ddL]
16eeJk
4dd
4a
!!linebreak:original
=
8.ddL
16eeJk
8.ff#L
16ggJk
4aa
16ggKL
8.ff#J
=
4gg
4ee
4cc#
4a
=
2dd
4dd
4ryy
=||
*M4/4
16ff#KL
8.eeJ
=
[4dd
8.ddL]
16eeJk
4dd
4a
=
8.ddL
16eeJk
8.ff#L
16ggJk
4aa
16ggKL
8.ff#J
!!linebreak:original
=
[4ee
8.eeL]
16ff#Jk
4ee
4a
=
8.cc#L
16ddJk
8.eeL
16ff#Jk
4gg
16ff#KL
8.eeJ
=
[4dd
8.ddL]
16eeJk
4dd
4a
=
8.ddL
16eeJk
8.ff#L
16ggJk
4aa
16ggKL
8.ff#J
=
4gg
4ee
4cc#
4a
=
2dd
4dd
4ryy
=||
8.aaL
16ggJk
2.ryy
!!linebreak:original
=
[4ff#
8.ff#L]
16ggJk
4ff#
4a
=
8.ddL
16eeJk
8.ff#L
16ggJk
4aa
16ggKL
8.ff#J
=
[4ee
8.eeL]
16ff#Jk
4ee
4a
=
8.cc#L
16ddJk
8.eeL
16ff#Jk
4gg
16ff#KL
8.eeJ
=
[4ff#
8.ff#L]
16ggJk
4ff#
4a
=
8.ddL
16eeJk
8.ff#L
16ggJk
4aa
16ggKL
8.ff#J
!!linebreak:original
=
[4gg
8.ggL]
16eeJk
4cc#
4a
=
2dd
4dd
4ryy
=||
8.aaL
16ggJk
2.ryy
=
[4ff#
8.ff#L]
16ggJk
4ff#
4a
=
8.ddL
16eeJk
8.ff#L
16ggJk
4aa
16ggKL
8.ff#J
=
[4ee
8.eeL]
16ff#Jk
4ee
4a
=
8.cc#L
16ddJk
8.eeL
16ff#Jk
4gg
16ff#KL
8.eeJ
!!linebreak:original
=
[4ff#
8.ff#L]
16ggJk
4ff#
4a
=
8.ddL
16eeJk
8.ff#L
16ggJk
4aa
16ggKL
8.ff#J
=
[4gg
8.ggL]
16eeJk
4cc#
4a
=
2dd
4dd
4ryy
=||
8aaL
8ggJ
2.ryy
=
4ff#
4dd
4dd
8.aaL
16ggJk
=
4ff#
4dd
4dd
16eeKL
8.ff#J
!!linebreak:original
=
4gg
4a
4cc#
4ee
=
4cc#
4a
4a
8.aaL
16ggJk
=
4ff#
4dd
4dd
8.aaL
16ggJk
=
4ff#
4dd
4dd
16eeKL
8.ff#J
=
4gg
4ee
4cc#
4a
=
2dd
4dd
4ryy
=||
8aaL
8ggJ
2.ryy
=
4ff#
4dd
4dd
8.aaL
16ggJk
!!linebreak:original
=
4ff#
4dd
4dd
16eeKL
8.ff#J
=
4gg
4a
4cc#
4ee
=
4cc#
4a
[4a
8aL]
16bL
16cc#JJ
=
[4dd
8.ddL]
16eeJk
4dd
4a
=
8.ddL
16eeJk
8ff#L
8ggJ
4aa
16ggKL
8.ff#J
=
4gg
4ee
4cc#
4aa
=
[2dd
4dd]
4ryy
=||
*-
